site/static/img/icons-facebook.svg

<svg enable-background="new 0 0 32 32" height="32" viewBox="0 0 32 32" width="32" xmlns="http://www.w3.org/2000/svg"><path d="m30.7 0h-29.4c-.7 0-1.3.6-1.3 1.3v29.3c0 .8.6 1.4 1.3 1.4h15.7v-12h-4v-5h4v-4c0-4.1 2.6-6.2 6.3-6.2 1.8 0 3.3.2 3.7.2v4.3h-2.6c-2 0-2.5 1-2.5 2.4v3.3h5l-1 5h-4l.1 12h8.6c.7 0 1.3-.6 1.3-1.3v-29.4c.1-.7-.5-1.3-1.2-1.3z"/></svg>

<?xml version="1.0" encoding="utf-8"?>
<!-- Generator: Adobe Illustrator 18.1.1, SVG Export Plug-In . SVG Version: 6.00 Build 0)  -->
<!DOCTYPE svg PUBLIC "-//W3C//DTD SVG 1.1//EN" "http://www.w3.org/Graphics/SVG/1.1/DTD/svg11.dtd">
<svg version="1.1" id="Layer_1" xmlns="http://www.w3.org/2000/svg" xmlns:xlink="http://www.w3.org/1999/xlink" x="0px" y="0px"
	 width="32px" height="32px" viewBox="0 0 32 32" enable-background="new 0 0 32 32" xml:space="preserve">
<path id="White_2_" d="M30.7,0H1.3C0.6,0,0,0.6,0,1.3v29.3C0,31.4,0.6,32,1.3,32H17V20h-4v-5h4v-4
	c0-4.1,2.6-6.2,6.3-6.2C25.1,4.8,26.6,5,27,5v4.3l-2.6,0c-2,0-2.5,1-2.5,2.4V15h5l-1,5h-4l0.1,12h8.6c0.7,0,1.3-0.6,1.3-1.3V1.3
	C32,0.6,31.4,0,30.7,0z"/>
</svg>
